X: 1677
T: Looking to Montague
C:Bob Rummery, Sorrento, WA
B: australian traditional tunes wiki
M:3/4
L:1/8
R: Waltz
Q: 1/4=100
K:D
V:1 
d>B|:"D"A2A2(3ABc|d2d>e f>d|"G"g2g>e g>d|B2B>A G>B|"A7"A2A>B c>d|e2e>f g>e|"D"f2f2(3def|"A7"e2e>d c>B|
"D"A2A2(3ABc|d2d>e f>d|"G"g2g>e g>d|B2B>A G>B|"A7"A2A>B c>d|e2e2e>f|"G"g2g>f g<f|"D"d4f>g||
"D"a2a>b a>g|f2f>e (3def|"G"g2g>f g>f|B2B>A G>B|"A7"A2A>B c>d|e2e>f g>e|"D"f2f2(3def|"A7"e2e>d c>B|
"D"A2A2(3ABc|d2d>e f>d|"G"g2g>f g>d|B2B>A G>B|"A7"A2A>B c>d|e2e2e>f|"G"g2g>f g<f|"D"d4d>c|
"G"B2B>c B>c|d2d>e d>e|"D"f2f>e f>d|A6|"G"g2g>f g>f|"A7"e2e>f e>d|c2c>d c>B|A2A>B A>G|
"D"F2A2(3ABc|d2d>e f>d|"G"g2g>f g>d|B2B>A G>B|"A7"A2A>B c>d|e2e2e>f|"G"g2g>f g<f|"D"d6-|d4z2||
% abcbook-tune_id 6342d53a51cfdca9de99fafa


% abcbook-boost 0
% abcbook-tablature 
% abcbook-transpose 
% abcbook-lastupdated 1665324377521
% abcbook-soundfonts 
% abcbook-repeats 1
% NFF Book 2008

